Suru++-Ubuntu/emblems/16/emblem-installed.svg

<svg width="16" height="16" version="1.2" xmlns="http://www.w3.org/2000/svg">
 <path d="m8.0000001 0.5000001c-4.1382429 0-7.5000001 3.3617571-7.5000001 7.4999998 0 4.1382431 3.3617572 7.5000001 7.5000001 7.5000001s7.5000069-3.361757 7.4999999-7.5000001c0-4.1382427-3.361757-7.4999998-7.4999999-7.4999998z" style="fill:#61a83d"/>
 <path d="m12.167483 4.228939-5.5517626 5.551762-2.783203-2.7832027-0.9960938 0.9960938 3.7792968 3.7774689 6.5478566-6.5460283z" style="fill:#ffffff"/>
</svg>

<svg xmlns="http://www.w3.org/2000/svg" width="16" height="16" version="1.2">
 <path style="fill:#61a83d" d="M 8.0000001,0.5000001 C 3.8617572,0.5000001 0.5,3.8617572 0.5,7.9999999 0.5,12.138243 3.8617572,15.5 8.0000001,15.5 12.138243,15.5 15.500007,12.138243 15.5,7.9999999 15.5,3.8617572 12.138243,0.5000001 8.0000001,0.5000001 Z"/>
 <path style="fill:#ffffff" d="M 12.167483,4.228939 6.6157204,9.780701 3.8325174,6.9974983 2.8364236,7.9935921 6.6157204,11.771061 13.163577,5.2250327 Z"/>
</svg>
